32x32/actions/mail-mark-unread.svg

<svg xmlns="http://www.w3.org/2000/svg" viewBox="0 0 32 32">
  <defs id="defs3051">
    <style type="text/css" id="current-color-scheme">
      .ColorScheme-Text {
        color:#555e70;
      }
      </style>
  </defs>
 <path 
     style="fill:currentColor;fill-opacity:1;stroke:none" 
     d="M 2 5 L 2 24.683594 L 2 27 L 30 27 L 30 24.683594 L 30 5 L 2 5 z M 3 6 L 3.0234375 6 L 12.070312 14.841797 L 3 23.707031 L 3 6 z M 4.453125 6 L 27.546875 6 L 16 17.285156 L 4.453125 6 z M 28.976562 6 L 29 6 L 29 23.707031 L 19.929688 14.841797 L 28.976562 6 z M 12.785156 15.541016 L 16 18.683594 L 19.214844 15.541016 L 28.570312 24.683594 L 29 25.091797 L 29 26 L 3 26 L 3 25.111328 L 3.4296875 24.683594 L 12.785156 15.541016 z "
     class="ColorScheme-Text"
     />
</svg>

<svg xmlns="http://www.w3.org/2000/svg" viewBox="0 0 32 32"><path style="fill:currentColor;fill-opacity:1;stroke:none;color:#555e70" d="M2 5v22h28V5H2zm1 1h.023l9.047 8.842L3 23.707V6zm1.453 0h23.094L16 17.285 4.453 6zm24.524 0H29v17.707l-9.07-8.865L28.977 6zm-16.192 9.541L16 18.684l3.215-3.143 9.355 9.143.43.408V26H3v-.889l.43-.427 9.355-9.143z"/></svg>
